svg/fluentui-system-icons/ic_fluent_shield_prohibited_20_regular.svg

<svg width="20" height="20" viewBox="0 0 20 20" fill="none" xmlns="http://www.w3.org/2000/svg">
<path d="M10.2774 2.08397C10.1094 1.97201 9.8906 1.97201 9.72265 2.08397C7.78446 3.3761 5.68833 4.1823 3.42929 4.50503C3.18296 4.54021 3 4.75117 3 5V9.5C3 13.3913 5.30699 16.2307 9.82051 17.9667C9.93605 18.0111 10.064 18.0111 10.1795 17.9667C10.2036 17.9574 10.2277 17.9481 10.2517 17.9387C9.70399 17.5373 9.23336 17.0369 8.86611 16.4639C5.59857 14.8665 4 12.5572 4 9.5V5.42787C5.98541 5.09055 7.85275 4.39606 9.59914 3.34583L10 3.09715L10.4009 3.34583C12.1473 4.39606 14.0146 5.09055 16 5.42787V8.59971C16.3578 8.78261 16.6929 9.00353 17 9.25716V5C17 4.75117 16.817 4.54021 16.5707 4.50503C14.3117 4.1823 12.2155 3.3761 10.2774 2.08397ZM10.6968 15.596L15.596 10.6968C15.0118 10.2592 14.2861 10 13.5 10C11.567 10 10 11.567 10 13.5C10 14.2861 10.2592 15.0118 10.6968 15.596ZM11.4039 16.3032C11.9882 16.7408 12.7138 17 13.5 17C15.433 17 17 15.433 17 13.5C17 12.7138 16.7408 11.9882 16.3032 11.4039L11.4039 16.3032ZM13.5 18C11.0147 18 9 15.9853 9 13.5C9 11.0147 11.0147 9 13.5 9C15.9853 9 18 11.0147 18 13.5C18 15.9853 15.9853 18 13.5 18Z" fill="#212121"/>
</svg>

<svg xmlns="http://www.w3.org/2000/svg" width="20" height="20"><path d="M10.277 2.084a.5.5 0 0 0-.554 0 15.05 15.05 0 0 1-6.294 2.421A.5.5 0 0 0 3 5v4.5c0 3.891 2.307 6.73 6.82 8.467a.5.5 0 0 0 .36 0l.072-.028a5.528 5.528 0 0 1-1.386-1.475C5.6 14.867 4 12.557 4 9.5V5.428a15.969 15.969 0 0 0 5.6-2.082l.4-.249.4.249A15.969 15.969 0 0 0 16 5.428V8.6c.358.183.693.404 1 .657V5a.5.5 0 0 0-.43-.495 15.05 15.05 0 0 1-6.293-2.421Zm.42 13.512 4.899-4.9a3.5 3.5 0 0 0-4.9 4.9Zm.707.707a3.5 3.5 0 0 0 4.9-4.9l-4.9 4.9ZM13.5 18a4.5 4.5 0 1 1 0-9 4.5 4.5 0 0 1 0 9Z"/></svg>
